X:185
T:Deuks Dang O'er Ma Daddie, The
C:Joe Buchanan's Scottish Tome - Page 273.1
I:273 1
Z:Carl Allison
R:Jig
L:1/8
M:6/8
K:D
((3ABc) | d2 A FED | EFE c>Bc | d2 A F2 E | FDD D2 f/e/ |
d2 A FED | EFE cBc | d2 A F2 E | FDD D2 :|
A | dcd Bcd | Bed cBA | dcd efg | fdd def |
gfg Bcd | efd cBA | {ABc}d2 A F2 E | FDD D2 :|

